X:1
T:Eden (Mason), LM
T:Eden (Mason), LM
T:Lowell Mason (1792-1872)
T:Public Domain Courtesy of the Cyber Hymnal™
C:Lowell Mason (1792-1872)
Z:Public Domain
Z:Courtesy of the Cyber Hymnal™
%%score ( 1 2 ) ( 3 4 )
L:1/8
Q:1/4=115
M:3/4
K:Ab
V:1 treble 
V:2 treble 
V:3 bass 
V:4 bass 
V:1
 [Ec]2 | (c2 B2) [EA]2 | (A2 G2) [DF]2 | ([CE]2 [Ec]2) [DB]2 | [CA]4 E2 | (E2 d2) [Ec]2 | %6
 [Ac]2 [GB]2 [FA]2 | (e2 c2) [EA]2 | [EB]4 E2 | (E2 [=DF]2) [_DG]2 | [CA]4 [CE]2 | %11
 ([DF]2 [Fd]2) [FB]2 | (A2 G2) E2 | [DF]4 [DG]2 | [CA]4 [EA]2 | (A2 G2) [EB]2 | [EA]4 |] %17
V:2
 x2 | E4 x2 | D4 x2 | x6 | x4 E2 | E4 x2 | x6 | E4 x2 | x4 E2 | E2 x4 | x6 | x6 | E4 E2 | x6 | x6 | %15
 E4 x2 | x4 |] %17
V:3
 [A,,C]2 | ([A,,E]2 [B,,D]2) [C,C]2 | [D,B,]4 [D,A,]2 | [E,A,]4 [E,G,]2 | [A,,A,]4 G,2 | %5
 [C,A,]2 [B,,G,]2 [A,,A,]2 | [A,C]2 [E,B,]2 [F,C]2 | ([G,B,]2 A,2) [C,A,]2 | [E,G,]4 [E,G,]2 | %9
 (G,2 A,2) [E,B,]2 | [A,,A,]4 [A,,A,]2 | [D,A,]4 [D,D]2 | (C2 B,2) [C,A,]2 | [D,A,]4 [B,,B,]2 | %14
 (E,2 A,2) [A,,C]2 | (C2 B,2) [E,D]2 | [A,,C]4 |] %17
V:4
 x2 | x6 | x6 | x6 | x4 (E,D,) | x6 | x6 | x2 A,2 x2 | x6 | E,4 x2 | x6 | x6 | E,4 x2 | x6 | %14
 A,,4 x2 | E,4 x2 | x4 |] %17

